X:1
T:Back to Coppers and Brass
L:1/8
Q:1/4=160
M:6/8
K:G
"G""^Back to Coppers and Brass" B3 GBd |"C" cBc ABc |"G" BdB GBd |"D" cAG FGA |
"G" B3 GBd |"C" cBc ABc |"D" d3 edc |"C" BAF"G" G2 A :|
